packages/foundations/assets/icons/functional/images/business & payment/law.svg

<svg xmlns="http://www.w3.org/2000/svg" width="32" height="32" fill="none"><path fill="#1A1C1F" fill-rule="evenodd" d="M15.813 4.08c-1.357.194-2.506.778-3.2 1.627-1.174 1.435-1.212 3.84-.084 5.268.12.151.218.295.218.32 0 .024-.172.127-.382.228-1.103.531-2.017 1.42-2.34 2.278-.213.565-.277 1.003-.25 1.692.045 1.113.401 1.9 1.201 2.651.706.664 1.456 1.109 4.33 2.576 1.351.689 1.611.842 1.878 1.101.574.559.828 1.355.729 2.285-.047.442-.283.93-.572 1.184-.743.652-2.454.856-3.901.465-.22-.059-.664-.206-.987-.326-.979-.365-1.55-.286-1.791.246-.551 1.212 1.209 2.205 4.09 2.309 3.508.127 5.514-1.447 5.658-4.437.05-1.059-.156-1.96-.603-2.625a7 7 0 0 1-.234-.363c0-.008.257-.139.571-.292.495-.243.63-.339 1.027-.74.725-.73 1.002-1.403 1.054-2.554.064-1.426-.309-2.467-1.21-3.38-.502-.507-1.181-.955-2.214-1.458-3.477-1.696-3.566-1.746-4.081-2.268-.374-.379-.582-.802-.634-1.287-.142-1.329.454-2.149 1.763-2.427.3-.064.596-.077 1.271-.057.752.023.976.051 1.537.192.792.2 1.125.21 1.452.045q.426-.214.423-.733c-.004-.96-1.191-1.526-3.305-1.576q-.88-.02-1.414.056m.094 9.259q2.946 1.47 3.325 1.848c.443.443.644 1.08.59 1.87-.065.946-.595 1.578-1.609 1.917-.644.216-.467.265-2.567-.712-2.393-1.113-2.73-1.319-3.2-1.958-.631-.857-.579-1.994.124-2.69.309-.306.808-.581 1.35-.742.656-.196.663-.194 1.987.467"/></svg>

<svg width="32" height="32" viewBox="0 0 32 32" fill="none" xmlns="http://www.w3.org/2000/svg"><path d="M15.813 4.080 C 14.456 4.274,13.307 4.858,12.613 5.707 C 11.439 7.142,11.401 9.547,12.529 10.975 C 12.649 11.126,12.747 11.270,12.747 11.295 C 12.747 11.319,12.575 11.422,12.365 11.523 C 11.262 12.054,10.348 12.943,10.025 13.801 C 9.812 14.366,9.748 14.804,9.775 15.493 C 9.820 16.606,10.176 17.393,10.976 18.144 C 11.682 18.808,12.432 19.253,15.306 20.720 C 16.657 21.409,16.917 21.562,17.184 21.821 C 17.758 22.380,18.012 23.176,17.913 24.106 C 17.866 24.548,17.630 25.036,17.341 25.290 C 16.598 25.942,14.887 26.146,13.440 25.755 C 13.220 25.696,12.776 25.549,12.453 25.429 C 11.474 25.064,10.903 25.143,10.662 25.675 C 10.111 26.887,11.871 27.880,14.752 27.984 C 18.260 28.111,20.266 26.537,20.410 23.547 C 20.460 22.488,20.254 21.587,19.807 20.922 C 19.679 20.730,19.573 20.566,19.573 20.559 C 19.573 20.551,19.830 20.420,20.144 20.267 C 20.639 20.024,20.774 19.928,21.171 19.527 C 21.896 18.797,22.173 18.124,22.225 16.973 C 22.289 15.547,21.916 14.506,21.015 13.593 C 20.513 13.086,19.834 12.638,18.801 12.135 C 15.324 10.439,15.235 10.389,14.720 9.867 C 14.346 9.488,14.138 9.065,14.086 8.580 C 13.944 7.251,14.540 6.431,15.849 6.153 C 16.149 6.089,16.445 6.076,17.120 6.096 C 17.872 6.119,18.096 6.147,18.657 6.288 C 19.449 6.488,19.782 6.498,20.109 6.333 C 20.393 6.190,20.534 5.946,20.532 5.600 C 20.528 4.640,19.341 4.074,17.227 4.024 C 16.640 4.010,16.169 4.029,15.813 4.080 M15.907 13.339 C 17.870 14.318,18.980 14.935,19.232 15.187 C 19.675 15.630,19.876 16.267,19.822 17.057 C 19.757 18.003,19.227 18.635,18.213 18.974 C 17.569 19.190,17.746 19.239,15.646 18.262 C 13.253 17.149,12.916 16.943,12.446 16.304 C 11.815 15.447,11.867 14.310,12.570 13.614 C 12.879 13.308,13.378 13.033,13.920 12.872 C 14.576 12.676,14.583 12.678,15.907 13.339 " fill="#1A1C1F" stroke="none" fill-rule="evenodd"></path></svg>
